; generated by PrusaSlicer 2.7.3+win64 on 2024-04-02 at 14:20:52 UTC


;
;
; 

; external perimeters extrusion width = 0.60mm
; perimeters extrusion width = 0.50mm
; infill extrusion width = 0.50mm
; solid infill extrusion width = 0.50mm
; top infill extrusion width = 0.45mm
; first layer extrusion width = 0.42mm

M73 P0 R129
M73 Q0 S130
M201 X1000 Y1000 Z200 E5000 ; sets maximum accelerations, mm/sec^2
M203 X200 Y200 Z12 E120 ; sets maximum feedrates, mm / sec
M204 S1250 T1250 ; sets acceleration (S) and retract acceleration (R), mm/sec^2
M205 X8.00 Y8.00 Z0.40 E4.50 ; sets the jerk limits, mm/sec
M205 S0 T0 ; sets the minimum extruding and travel feed rate, mm/sec

; printing object mazeDeepFirstSearch.stl id:0 copy 0
; stop printing object mazeDeepFirstSearch.stl id:0 copy 0

;TYPE:Custom
M862.3 P "MK3S" ; printer model check
M862.1 P0.4 ; nozzle diameter check
M115 U3.13.3 ; tell printer latest fw version
G90 ; use absolute coordinates
M83 ; extruder relative mode
M104 S215 ; set extruder temp
M140 S60 ; set bed temp
M190 S60 ; wait for bed temp
M109 S215 ; wait for extruder temp
G28 W ; home all without mesh bed level
G80 X61.9344 Y42.5344 W126.131 H126.131 ; mesh bed levelling

G1 Z0.2 F720
G1 Y-3 F1000 ; go outside print area
G92 E0
G1 X60 E9 F1000 ; intro line
G1 X100 E12.5 F1000 ; intro line

G92 E0
M221 S95

; Don't change E values below. Excessive value can damage the printer.

M907 E538 ; set extruder motor current
G21 ; set units to millimeters
G90 ; use absolute coordinates
M83 ; use relative distances for extrusion

M900 K0.05 ; Filament gcode LA 1.5
M900 K30 ; Filament gcode LA 1.0




M107
;LAYER_CHANGE
;Z:0.2
;HEIGHT:0.2
G1 E-.8 F2100
G1 Z.6 F720
G1 X62.515 Y43.793 F10800
G1 Z.2 F720
G1 E.8 F2100
M204 S800
;TYPE:Skirt/Brim
;WIDTH:0.42
G1 F1200
G1 X63.56 Y42.917 E.04275
G1 X64.5 Y42.723 E.03009
G1 X185.5 Y42.723 E3.79387
G1 X186.807 Y43.115 E.04278
M73 Q0 S129
G1 X187.683 Y44.16 E.04275
G1 X187.877 Y45.1 E.03009
G1 X187.877 Y166.1 E3.79387
G1 X187.485 Y167.407 E.04278
G1 X186.44 Y168.283 E.04275
G1 X185.5 Y168.477 E.03009
G1 X65.5 Y168.477 E3.76252
G1 X64.193 Y168.085 E.04278
G1 X63.141 Y166.395 E.06242
G1 X62.123 Y158.1 E.26204
G1 X62.123 Y45.1 E3.54304
G1 X62.497 Y43.85 E.04091
M204 S1000
;WIPE_START
G1 F8640
G1 X62.515 Y43.793 E-.0138
G1 X63.56 Y42.917 E-.31486
G1 X64.5 Y42.723 E-.22162
G1 X65.581 Y42.723 E-.24972
;WIPE_END
G1 Z.6 F720
; printing object mazeDeepFirstSearch.stl id:0 copy 0
G1 X65.816 Y157.34 F10800
G1 Z.2 F720
G1 E.8 F2100
M204 S800
;TYPE:Perimeter
;WIDTH:0.419999
G1 F1200
G1 X65.721 Y157.313 E.0031
G1 X65.287 Y157.313 E.01361
G1 X65.287 Y45.887 E3.49368
G1 X184.713 Y45.887 E3.74451
G1 X184.713 Y105.6 E1.87226
G1 X184.713 Y165.313 E1.87226
G1 X66.287 Y165.313 E3.71316
G1 X66.287 Y157.879 E.23309
G1 X66.226 Y157.624 E.00822
G1 X66.02 Y157.398 E.00959
G1 X65.874 Y157.356 E.00476
M204 S1000
G1 X65.874 Y157.356 F10800
G1 X65.721 Y157.69
M204 S800
;TYPE:External perimeter
G1 F1200
G1 X64.91 Y157.69 E.02543
G1 X64.91 Y45.51 E3.51732
G1 X185.09 Y45.51 E3.76815
M73 P0 R128
G1 X185.09 Y105.6 E1.88408
G1 X185.09 Y165.69 E1.88408
G1 X65.91 Y165.69 E3.7368
M73 Q0 S128
G1 X65.91 Y157.879 E.24491
M73 P1 R128
M73 Q1 S128
G1 X65.88 Y157.776 E.00336
G1 X65.774 Y157.719 E.00377
M204 S1000
;WIPE_START
G1 F8640
G1 X65.721 Y157.69 E-.01395
G1 X64.91 Y157.69 E-.18726
G1 X64.91 Y155.097 E-.59879
;WIPE_END
G1 Z.6 F720
G1 X183.779 Y46.057 F10800
G1 Z.2 F720
G1 E.8 F2100
M204 S800
;TYPE:Solid infill
;WIDTH:0.420757
G1 F1200
G1 X184.374 Y46.651 E.02641
G1 X184.374 Y47.185 E.01678
G1 X183.415 Y46.226 E.04261
G1 X182.88 Y46.226 E.01681
G1 X184.374 Y47.72 E.06638
G1 X184.374 Y48.254 E.01678
G1 X182.346 Y46.226 E.09011
G1 X181.812 Y46.226 E.01678
G1 X184.374 Y48.788 E.11383
G1 X184.374 Y49.323 E.01681
G1 X181.277 Y46.226 E.1376
G1 X180.743 Y46.226 E.01678
G1 X184.374 Y49.857 E.16133
G1 X184.374 Y50.391 E.01678
G1 X180.209 Y46.226 E.18505
G1 X179.674 Y46.226 E.01681
G1 X184.374 Y50.926 E.20882
G1 X184.374 Y51.46 E.01678
G1 X179.14 Y46.226 E.23255
G1 X178.606 Y46.226 E.01678
G1 X184.374 Y51.994 E.25628
G1 X184.374 Y52.529 E.01681
G1 X178.071 Y46.226 E.28005
G1 X177.537 Y46.226 E.01678
G1 X184.374 Y53.063 E.30377
G1 X184.374 Y53.597 E.01678
G1 X177.003 Y46.226 E.3275
G1 X176.468 Y46.226 E.01681
G1 X184.374 Y54.132 E.35127
G1 X184.374 Y54.666 E.01678
G1 X175.934 Y46.226 E.375
G1 X175.4 Y46.226 E.01678
G1 X184.374 Y55.2 E.39872
G1 X184.374 Y55.735 E.01681
G1 X174.865 Y46.226 E.42249
G1 X174.331 Y46.226 E.01678
G1 X184.374 Y56.269 E.44622
G1 X184.374 Y56.803 E.01678
G1 X173.797 Y46.226 E.46994
G1 X173.262 Y46.226 E.01681
G1 X184.374 Y57.338 E.49371
G1 X184.374 Y57.872 E.01678
G1 X172.728 Y46.226 E.51744
G1 X172.194 Y46.226 E.01678
G1 X184.374 Y58.406 E.54117
G1 X184.374 Y58.941 E.01681
G1 X171.659 Y46.226 E.56494
G1 X171.125 Y46.226 E.01678
G1 X184.374 Y59.475 E.58866
G1 X184.374 Y60.01 E.01681
G1 X170.59 Y46.226 E.61243
G1 X170.056 Y46.226 E.01678
G1 X184.374 Y60.544 E.63616
G1 X184.374 Y61.078 E.01678
G1 X169.522 Y46.226 E.65989
G1 X168.987 Y46.226 E.01681
G1 X184.374 Y61.613 E.68366
G1 X184.374 Y62.147 E.01678
G1 X168.453 Y46.226 E.70738
G1 X167.919 Y46.226 E.01678
G1 X184.374 Y62.681 E.73111
G1 X184.374 Y63.216 E.01681
G1 X167.384 Y46.226 E.75488
G1 X166.85 Y46.226 E.01678
G1 X184.374 Y63.75 E.7786
G1 X184.374 Y64.284 E.01678
G1 X166.316 Y46.226 E.80233
G1 X165.781 Y46.226 E.01681
G1 X184.374 Y64.819 E.8261
G1 X184.374 Y65.353 E.01678
G1 X165.247 Y46.226 E.84983
G1 X164.713 Y46.226 E.01678
G1 X184.374 Y65.887 E.87355
G1 X184.374 Y66.422 E.01681
G1 X164.178 Y46.226 E.89732
G1 X163.644 Y46.226 E.01678
G1 X184.374 Y66.956 E.92105
G1 X184.374 Y67.49 E.01678
G1 X163.11 Y46.226 E.94478
G1 X162.575 Y46.226 E.01681
G1 X184.374 Y68.025 E.96855
G1 X184.374 Y68.559 E.01678
G1 X162.041 Y46.226 E.99227
G1 X161.507 Y46.226 E.01678
G1 X184.374 Y69.093 E1.016
G1 X184.374 Y69.628 E.01681
G1 X160.972 Y46.226 E1.03977
G1 X160.438 Y46.226 E.01678
M73 P1 R127
G1 X184.374 Y70.162 E1.06349
G1 X184.374 Y70.696 E.01678
G1 X159.904 Y46.226 E1.08722
G1 X159.369 Y46.226 E.01681
G1 X184.374 Y71.231 E1.11099
G1 X184.374 Y71.765 E.01678
G1 X158.835 Y46.226 E1.13472
G1 X158.301 Y46.226 E.01678
G1 X184.374 Y72.299 E1.15844
G1 X184.374 Y72.834 E.01681
G1 X157.766 Y46.226 E1.18221
G1 X157.232 Y46.226 E.01678
M73 Q1 S127
G1 X184.374 Y73.368 E1.20594
G1 X184.374 Y73.902 E.01678
G1 X156.698 Y46.226 E1.22967
G1 X156.163 Y46.226 E.01681
G1 X184.374 Y74.437 E1.25344
G1 X184.374 Y74.971 E.01678
G1 X155.629 Y46.226 E1.27716
G1 X155.095 Y46.226 E.01678
G1 X184.374 Y75.505 E1.30089
G1 X184.374 Y76.04 E.01681
G1 X154.56 Y46.226 E1.32466
G1 X154.026 Y46.226 E.01678
G1 X184.374 Y76.574 E1.34838
G1 X184.374 Y77.108 E.01678
G1 X153.492 Y46.226 E1.37211
G1 X152.957 Y46.226 E.01681
G1 X184.374 Y77.643 E1.39588
G1 X184.374 Y78.177 E.01678
G1 X152.423 Y46.226 E1.41961
G1 X151.889 Y46.226 E.01678
G1 X184.374 Y78.711 E1.44333
G1 X184.374 Y79.246 E.01681
M73 Q2 S127
G1 X151.354 Y46.226 E1.4671
G1 X150.82 Y46.226 E.01678
M73 P2 R127
G1 X184.374 Y79.78 E1.49083
G1 X184.374 Y80.315 E.01681
G1 X150.285 Y46.226 E1.5146
G1 X149.751 Y46.226 E.01678
G1 X184.374 Y80.849 E1.53833
G1 X184.374 Y81.383 E.01678
G1 X149.217 Y46.226 E1.56205
G1 X148.682 Y46.226 E.01681
G1 X184.374 Y81.918 E1.58582
G1 X184.374 Y82.452 E.01678
G1 X148.148 Y46.226 E1.60955
G1 X147.614 Y46.226 E.01678
G1 X184.374 Y82.986 E1.63327
G1 X184.374 Y83.521 E.01681
G1 X147.079 Y46.226 E1.65704
G1 X146.545 Y46.226 E.01678
G1 X184.374 Y84.055 E1.68077
G1 X184.374 Y84.589 E.01678
M73 P2 R126
G1 X146.011 Y46.226 E1.7045
G1 X145.476 Y46.226 E.01681
G1 X184.374 Y85.124 E1.72827
G1 X184.374 Y85.658 E.01678
G1 X144.942 Y46.226 E1.75199
G1 X144.408 Y46.226 E.01678
G1 X184.374 Y86.192 E1.77572
G1 X184.374 Y86.727 E.01681
M73 Q2 S126
G1 X143.873 Y46.226 E1.79949
G1 X143.339 Y46.226 E.01678
G1 X184.374 Y87.261 E1.82322
G1 X184.374 Y87.795 E.01678
G1 X142.805 Y46.226 E1.84694
G1 X142.27 Y46.226 E.01681
G1 X184.374 Y88.33 E1.87071
G1 X184.374 Y88.864 E.01678
G1 X141.736 Y46.226 E1.89444
G1 X141.202 Y46.226 E.01678
G1 X184.374 Y89.398 E1.91816
G1 X184.374 Y89.933 E.01681
G1 X140.667 Y46.226 E1.94193
G1 X140.133 Y46.226 E.01678
G1 X184.374 Y90.467 E1.96566
G1 X184.374 Y91.001 E.01678
G1 X139.599 Y46.226 E1.98939
G1 X139.064 Y46.226 E.01681
G1 X184.374 Y91.536 E2.01316
G1 X184.374 Y92.07 E.01678
G1 X138.53 Y46.226 E2.03688
G1 X137.996 Y46.226 E.01678
G1 X184.374 Y92.604 E2.06061
G1 X184.374 Y93.139 E.01681
G1 X137.461 Y46.226 E2.08438
G1 X136.927 Y46.226 E.01678
G1 X184.374 Y93.673 E2.10811
G1 X184.374 Y94.207 E.01678
M73 P3 R126
M73 Q3 S126
G1 X136.393 Y46.226 E2.13183
G1 X135.858 Y46.226 E.01681
M73 P3 R125
G1 X184.374 Y94.742 E2.1556
G1 X184.374 Y95.276 E.01678
G1 X135.324 Y46.226 E2.17933
G1 X134.79 Y46.226 E.01678
G1 X184.374 Y95.81 E2.20305
G1 X184.374 Y96.345 E.01681
G1 X134.255 Y46.226 E2.22682
G1 X133.721 Y46.226 E.01678
M73 Q3 S125
G1 X184.374 Y96.879 E2.25055
G1 X184.374 Y97.413 E.01678
G1 X133.187 Y46.226 E2.27428
G1 X132.652 Y46.226 E.01681
G1 X184.374 Y97.948 E2.29805
G1 X184.374 Y98.482 E.01678
G1 X132.118 Y46.226 E2.32177
G1 X131.584 Y46.226 E.01678
G1 X184.374 Y99.016 E2.3455
G1 X184.374 Y99.551 E.01681
G1 X131.049 Y46.226 E2.36927
G1 X130.515 Y46.226 E.01678
G1 X184.374 Y100.085 E2.393
G1 X184.374 Y100.62 E.01681
G1 X129.98 Y46.226 E2.41677
G1 X129.446 Y46.226 E.01678
G1 X184.374 Y101.154 E2.44049
G1 X184.374 Y101.688 E.01678
G1 X128.912 Y46.226 E2.46422
G1 X128.377 Y46.226 E.01681
G1 X184.374 Y102.223 E2.48799
G1 X184.374 Y102.757 E.01678
G1 X127.843 Y46.226 E2.51171
G1 X127.309 Y46.226 E.01678
M73 P3 R124
G1 X184.374 Y103.291 E2.53544
G1 X184.374 Y103.826 E.01681
G1 X126.774 Y46.226 E2.55921
G1 X126.24 Y46.226 E.01678
G1 X184.374 Y104.36 E2.58294
G1 X184.374 Y104.894 E.01678
M73 P4 R124
M73 Q4 S124
G1 X125.706 Y46.226 E2.60666
G1 X125.171 Y46.226 E.01681
G1 X184.374 Y105.429 E2.63043
G1 X184.374 Y105.963 E.01678
G1 X124.637 Y46.226 E2.65416
G1 X124.103 Y46.226 E.01678
G1 X184.374 Y106.497 E2.67788
G1 X184.374 Y107.032 E.01681
G1 X123.568 Y46.226 E2.70166
G1 X123.034 Y46.226 E.01678
G1 X184.374 Y107.566 E2.72538
G1 X184.374 Y108.1 E.01678
G1 X122.5 Y46.226 E2.74911
G1 X121.965 Y46.226 E.01681
G1 X184.374 Y108.635 E2.77288
G1 X184.374 Y109.169 E.01678
G1 X121.431 Y46.226 E2.7966
G1 X120.897 Y46.226 E.01678
G1 X184.374 Y109.703 E2.82033
G1 X184.374 Y110.238 E.01681
G1 X120.362 Y46.226 E2.8441
G1 X119.828 Y46.226 E.01678
M73 P4 R123
G1 X184.374 Y110.772 E2.86783
G1 X184.374 Y111.306 E.01678
G1 X119.294 Y46.226 E2.89155
G1 X118.759 Y46.226 E.01681
G1 X184.374 Y111.841 E2.91532
G1 X184.374 Y112.375 E.01678
M73 Q4 S123
G1 X118.225 Y46.226 E2.93905
G1 X117.691 Y46.226 E.01678
G1 X184.374 Y112.909 E2.96277
G1 X184.374 Y113.444 E.01681
G1 X117.156 Y46.226 E2.98655
G1 X116.622 Y46.226 E.01678
G1 X184.374 Y113.978 E3.01027
G1 X184.374 Y114.512 E.01678
M73 P5 R123
M73 Q5 S123
G1 X116.088 Y46.226 E3.034
G1 X115.553 Y46.226 E.01681
G1 X184.374 Y115.047 E3.05777
G1 X184.374 Y115.581 E.01678
G1 X115.019 Y46.226 E3.08149
G1 X114.485 Y46.226 E.01678
G1 X184.374 Y116.115 E3.10522
G1 X184.374 Y116.65 E.01681
G1 X113.95 Y46.226 E3.12899
G1 X113.416 Y46.226 E.01678
G1 X184.374 Y117.184 E3.15272
G1 X184.374 Y117.718 E.01678
M73 P5 R122
G1 X112.882 Y46.226 E3.17644
G1 X112.347 Y46.226 E.01681
G1 X184.374 Y118.253 E3.20021
G1 X184.374 Y118.787 E.01678
M73 Q5 S122
G1 X111.813 Y46.226 E3.22394
G1 X111.279 Y46.226 E.01678
G1 X184.374 Y119.321 E3.24766
G1 X184.374 Y119.856 E.01681
G1 X110.744 Y46.226 E3.27144
G1 X110.21 Y46.226 E.01678
G1 X184.374 Y120.39 E3.29516
G1 X184.374 Y120.925 E.01681
G1 X109.675 Y46.226 E3.31893
G1 X109.141 Y46.226 E.01678
G1 X184.374 Y121.459 E3.34266
G1 X184.374 Y121.993 E.01678
G1 X108.607 Y46.226 E3.36638
G1 X108.072 Y46.226 E.01681
M73 P6 R122
M73 Q6 S122
G1 X184.374 Y122.528 E3.39015
G1 X184.374 Y123.062 E.01678
G1 X107.538 Y46.226 E3.41388
G1 X107.004 Y46.226 E.01678
M73 P6 R121
G1 X184.374 Y123.596 E3.43761
G1 X184.374 Y124.131 E.01681
G1 X106.469 Y46.226 E3.46138
G1 X105.935 Y46.226 E.01678
M73 Q6 S121
G1 X184.374 Y124.665 E3.4851
G1 X184.374 Y125.199 E.01678
G1 X105.401 Y46.226 E3.50883
G1 X104.866 Y46.226 E.01681
G1 X184.374 Y125.734 E3.5326
G1 X184.374 Y126.268 E.01678
G1 X104.332 Y46.226 E3.55632
G1 X103.798 Y46.226 E.01678
G1 X184.374 Y126.802 E3.58005
G1 X184.374 Y127.337 E.01681
G1 X103.263 Y46.226 E3.60382
G1 X102.729 Y46.226 E.01678
G1 X184.374 Y127.871 E3.62755
G1 X184.374 Y128.405 E.01678
G1 X102.195 Y46.226 E3.65127
G1 X101.66 Y46.226 E.01681
G1 X184.374 Y128.94 E3.67504
G1 X184.374 Y129.474 E.01678
M73 P6 R120
G1 X101.126 Y46.226 E3.69877
G1 X100.592 Y46.226 E.01678
M73 P7 R120
M73 Q7 S121
G1 X184.374 Y130.008 E3.7225
G1 X184.374 Y130.543 E.01681
M73 Q7 S120
G1 X100.057 Y46.226 E3.74627
G1 X99.523 Y46.226 E.01678
G1 X184.374 Y131.077 E3.76999
G1 X184.374 Y131.611 E.01678
G1 X98.989 Y46.226 E3.79372
G1 X98.454 Y46.226 E.01681
G1 X184.374 Y132.146 E3.81749
G1 X184.374 Y132.68 E.01678
G1 X97.92 Y46.226 E3.84121
G1 X97.386 Y46.226 E.01678
G1 X184.374 Y133.214 E3.86494
G1 X184.374 Y133.749 E.01681
G1 X96.851 Y46.226 E3.88871
G1 X96.317 Y46.226 E.01678
G1 X184.374 Y134.283 E3.91244
G1 X184.374 Y134.817 E.01678
M73 P7 R119
G1 X95.783 Y46.226 E3.93616
G1 X95.248 Y46.226 E.01681
G1 X184.374 Y135.352 E3.95993
G1 X184.374 Y135.886 E.01678
M73 Q7 S119
G1 X94.714 Y46.226 E3.98366
G1 X94.18 Y46.226 E.01678
M73 P8 R119
M73 Q8 S119
G1 X184.374 Y136.42 E4.00739
G1 X184.374 Y136.955 E.01681
G1 X93.645 Y46.226 E4.03116
G1 X93.111 Y46.226 E.01678
G1 X184.374 Y137.489 E4.05488
G1 X184.374 Y138.023 E.01678
G1 X92.577 Y46.226 E4.07861
G1 X92.042 Y46.226 E.01681
G1 X184.374 Y138.558 E4.10238
G1 X184.374 Y139.092 E.01678
G1 X91.508 Y46.226 E4.1261
G1 X90.974 Y46.226 E.01678
M73 P8 R118
G1 X184.374 Y139.627 E4.14985
G1 X184.374 Y140.161 E.01678
G1 X90.439 Y46.226 E4.1736
G1 X89.905 Y46.226 E.01678
M73 Q8 S118
G1 X184.374 Y140.695 E4.19733
G1 X184.374 Y141.23 E.01681
G1 X89.37 Y46.226 E4.2211
G1 X88.836 Y46.226 E.01678
G1 X184.374 Y141.764 E4.24482
G1 X184.374 Y142.298 E.01678
G1 X88.302 Y46.226 E4.26855
G1 X87.767 Y46.226 E.01681
M73 P9 R118
M73 Q9 S118
G1 X184.374 Y142.833 E4.29232
G1 X184.374 Y143.367 E.01678
G1 X87.233 Y46.226 E4.31605
G1 X86.699 Y46.226 E.01678
G1 X184.374 Y143.901 E4.33977
G1 X184.374 Y144.436 E.01681
M73 P9 R117
G1 X86.164 Y46.226 E4.36354
G1 X85.63 Y46.226 E.01678
G1 X184.374 Y144.97 E4.38727
G1 X184.374 Y145.504 E.01678
M73 Q9 S117
G1 X85.096 Y46.226 E4.41099
G1 X84.561 Y46.226 E.01681
G1 X184.374 Y146.039 E4.43477
G1 X184.374 Y146.573 E.01678
G1 X84.027 Y46.226 E4.45849
G1 X83.493 Y46.226 E.01678
G1 X184.374 Y147.107 E4.48222
G1 X184.374 Y147.642 E.01681
G1 X82.958 Y46.226 E4.50599
G1 X82.424 Y46.226 E.01678
G1 X184.374 Y148.176 E4.52971
G1 X184.374 Y148.71 E.01678
M73 P10 R116
M73 Q10 S117
G1 X81.89 Y46.226 E4.55344
G1 X81.355 Y46.226 E.01681
G1 X184.374 Y149.245 E4.57721
G1 X184.374 Y149.779 E.01678
M73 Q10 S116
G1 X80.821 Y46.226 E4.60094
G1 X80.287 Y46.226 E.01678
G1 X184.374 Y150.313 E4.62466
G1 X184.374 Y150.848 E.01681
G1 X79.752 Y46.226 E4.64843
G1 X79.218 Y46.226 E.01678
G1 X184.374 Y151.382 E4.67216
G1 X184.374 Y151.916 E.01678
G1 X78.684 Y46.226 E4.69588
G1 X78.149 Y46.226 E.01681
G1 X184.374 Y152.451 E4.71965
G1 X184.374 Y152.985 E.01678
M73 P10 R115
G1 X77.615 Y46.226 E4.74338
G1 X77.081 Y46.226 E.01678
G1 X184.374 Y153.519 E4.76711
G1 X184.374 Y154.054 E.01681
M73 Q10 S115
G1 X76.546 Y46.226 E4.79088
G1 X76.012 Y46.226 E.01678
M73 P11 R115
M73 Q11 S115
G1 X184.374 Y154.588 E4.8146
G1 X184.374 Y155.122 E.01678
G1 X75.478 Y46.226 E4.83833
G1 X74.943 Y46.226 E.01681
G1 X184.374 Y155.657 E4.8621
G1 X184.374 Y156.191 E.01678
G1 X74.409 Y46.226 E4.88583
G1 X73.875 Y46.226 E.01678
G1 X184.374 Y156.725 E4.90955
G1 X184.374 Y157.26 E.01681
M73 P11 R114
G1 X73.34 Y46.226 E4.93332
G1 X72.806 Y46.226 E.01678
G1 X184.374 Y157.794 E4.95705
G1 X184.374 Y158.328 E.01678
M73 Q11 S114
G1 X72.272 Y46.226 E4.98077
G1 X71.737 Y46.226 E.01681
G1 X184.374 Y158.863 E5.00454
